X:145
M:3/4
L:1/8
Q:1/4=100
K:G Minor
c2d2 c>d|F2G zd>c|A2F2G2|A2G z||
d>^f|g2b2a>g|f2d zd>^f|g2b2a>g|f2d zf>=e|
d2c zA>G|F2G zd>c|A2F2G2|A2G z||

